X: 1
T: Mrs. MacDonal Grant
C: Niel Gow
R: reel
Z: John Chambers <jc@trillian.mit.edu>
M: 2/4
L: 1/16
%Q: 1/4=112
K: F
c2 \
| "F"ABc2 c2A2 | "Bb"B2d2 d4 | "F"ABc2 A2F2 | "C7"E2G2 G4 \
| "F"ABc2 c2A2 | "Bb"Bcde f2ed | "F"c2A2 "C7"B2G2 | "F"F4- F2 :|
f2 \
| "C7"g4 a4 | "F"f2c2 f2a2 | "C7"g2fg "F"a2f2 | "C7"e2g2 g2a2 \
| "C7"g4 a4 | "F"f2c2 "Bb"f2ed | "F"c2A2 "C7"B2G2 | "F"F4- F2 f2 ||
| "C7"g4 a4 | "F"f2c2 f2a2 | "C7"g2fg "F"a2f2 | "C7"e2g2 g2fg \
| "F"a2f2 "Bb"d2f2 | "C"e2c2 "Dm"f2ed | "F/C"c2A2 "C7"B2G2 | "F"F4- F2 |]
